X: 3
M: 6/8
L: 1/8
K: G
g | (dB) G (Bc) d | e2 A A2 g |
(dB) G (AB) ^d | e2 E E2 g | (dB) G
(Bc) d | (ed) c (BA) G | (cB) A B2 ^d |
e2 E E2 ][ f | (ga) g (gf) e |
(ab) a (ag) f | (gf) g (ag) a |
b2 e e2 f | (ga) g (gf) e |
(ab) a (ag) f | (gf) e B2 ^d |
e2 E E2 "^Da Capo"|]

